icons/themes/default/back-to-top.svg

<svg viewBox="0 0 20 20" fill="none" xmlns="http://www.w3.org/2000/svg">
<path fill-rule="evenodd" clip-rule="evenodd" d="M2.77502 3.6L17.2246 3.6V2.5L2.77502 2.5V3.6ZM6.47531 10.9645L9.44982 7.99004L9.44982 17.4995H10.5498L10.5498 7.99004L13.5243 10.9645L14.3021 10.1867L10.3887 6.27331L9.99982 5.88441L9.61091 6.27331L5.6975 10.1867L6.47531 10.9645Z" fill="currentColor"/>
</svg>

<svg xmlns="http://www.w3.org/2000/svg" fill="none" viewBox="0 0 20 20">
  <path fill="currentColor" fill-rule="evenodd" d="M2.775 3.6h14.45V2.5H2.775v1.1Zm3.7 7.364L9.45 7.99v9.51h1.1V7.99l2.974 2.974.778-.777-3.913-3.914-.39-.389-.388.39-3.914 3.913.778.777Z" clip-rule="evenodd"/>
</svg>
